X:66
T: Frisch auf, ihr Landsknecht alle!
N: A0417C
O: Europa, Mitteleuropa, Deutschland
N: M Praetorius, Mus. Sion. VIII. 1610 No. 219-221. Dorisch auf G.
R: Romanze, Ballade, Lied, Kriegslied
M: 3/2
L: 1/4
K: D
A2 | A4A2 | B4A2 | G3AB2 |
G4G2 | A4A2 | =c4B2 | A4
A2 | A4A2 | B4A2 | G3AB2 |
G4G2 | A4G2 | =F2E4 | D4
D2 | =F4G2 | A4G2 | =F4D2 | =C4
C2 | =F4G2 | A4A2 | =c4B2 | A4
A2 | G2=F2G2 | A2=F4 | D4
A2 | G2=F2G2 | A2=F4 | D4
A2 | =c4B2 | A4=F2 | G4=F2 | E6 | D4

@@@ Tune index: 379
